packages/bezier-icons/icons/tool.svg

<svg width="24" height="24" viewBox="0 0 24 24" fill="none" xmlns="http://www.w3.org/2000/svg">
<path d="M6.66422 6.66411C6.27468 7.05365 5.64373 7.05464 5.25297 6.66707L3.8358 5.2499C3.05477 6.03095 3.05476 7.29728 3.8358 8.07833L4.7786 9.02112C5.64365 9.88618 6.95516 10.0327 7.97142 9.46058L10.3563 12.1436L8.42146 14.0784L9.83567 15.4927L11.6873 13.641L17.3563 20.0185C18.0771 20.8295 19.332 20.8664 20.0992 20.0991C20.8664 19.3319 20.8296 18.0771 20.0186 17.3562L13.6411 11.6873L17.1996 8.1287L17.9067 8.83581L20.7352 4.59317L19.321 3.17896L15.0783 6.00738L15.7854 6.71448L12.1437 10.3562L9.46065 7.97136C10.0328 6.9551 9.88629 5.64357 9.02124 4.77851L8.07845 3.83569C7.2974 3.05464 6.03105 3.05465 5.25 3.83569L7.60703 6.19269L6.66752 5.25322C7.05474 5.644 7.05364 6.27469 6.66422 6.66411Z" fill="#313234"/>
<path d="M10.5428 16.1998L6.30014 20.4424C5.51909 21.2235 4.25276 21.2235 3.47171 20.4424C2.69066 19.6614 2.69066 18.395 3.47171 17.614L7.71435 13.3713L10.5428 16.1998Z" fill="#313234"/>
</svg>

<svg xmlns="http://www.w3.org/2000/svg" width="24" height="24" fill="none" viewBox="0 0 24 24"><path fill="#313234" d="M6.664 6.664a1 1 0 0 1-1.411.003L3.836 5.25a2 2 0 0 0 0 2.828l.943.943a2.67 2.67 0 0 0 3.192.44l2.385 2.683-1.935 1.934 1.415 1.415 1.851-1.852 5.67 6.377a1.886 1.886 0 1 0 2.662-2.662l-6.378-5.669L17.2 8.13l.707.707 2.828-4.243-1.414-1.414-4.243 2.828.707.707-3.641 3.642L9.46 7.971a2.67 2.67 0 0 0-.44-3.192l-.943-.943a2 2 0 0 0-2.828 0l2.357 2.357-.94-.94a1 1 0 0 1-.003 1.411M10.543 16.2 6.3 20.442a2 2 0 1 1-2.828-2.828l4.242-4.243z"/></svg>
